X:84
T:Go to Berwick Johnnie
Z:Jack Campin, http://www.campin.me.uk/
S:Northumbrian Minstrelsy
M:3/2
L:1/8
K:G
d2G2 G2d2 edcB|d2G2 G2d2 B2g2 |\
d2G2 G2d2 edcB|d2A2 A2B2 c2e2:|
g3 a g2G2 BcdB|g3 a g2G2 B2d2 |\
g3 a g2G2 BcdB|e2a2 a2A2 c2e2 |
g3 a g2G2 BcdB|g3 a g2G2 B2d2 |\
g3 a bagf gfed|e2a2 a2A2 c2e2:|

